X:43
T:The Ivory and the Quill
S:Sharon Shannon:Each Little Thing
Z:robin.beech@mcgill.ca
R:reel
M:4/4
L:1/8
K:D
d3e fdAF | G2FG Addd | AGFG Adde | cAde fag/f/e |
fag/f/e fag/f/e | d2df e2dc | AGFG Addc |1 d3c ABc/B/A :|2
d3e fag/f/e |: d3d cege | fddd efg/f/e | dcdf eAce |
cAde f2ge | d3d cege | fddd ABce | dcdf eABc | d3e fag/f/e :|
K:G
df |: gBBB BAGB | dcBA GFGE | DEDG GFGA | BdcB A3g |
gBBB BAGB | AGFG ABcA | BcdB cagf | edef g2gz ::
f2cf Acfa | gfdc cBGB | ADFD ABcA | dge/f/g defg |
f2cf Acfa | gfdc cBGB | ADFD ABcA |1 dge/f/a g3g :|2 dge/f/a g4 |]
